web-magafilio/image/footer/icon-facebook.svg

<svg width="29" height="29" viewBox="0 0 29 29" fill="none" xmlns="http://www.w3.org/2000/svg">
<path d="M28.8319 27.0713C28.8319 28.0373 28.0479 28.8213 27.0819 28.8213H2.58191C1.61591 28.8213 0.831909 28.0373 0.831909 27.0713V2.57129C0.831909 1.60529 1.61591 0.821289 2.58191 0.821289H27.0819C28.0479 0.821289 28.8319 1.60529 28.8319 2.57129V27.0713Z" fill="#3B5998"/>
<path d="M20.0819 28.8213V18.3213H23.5819L24.4569 13.9463H20.0819V12.1963C20.0819 10.4463 20.9587 9.57129 22.7069 9.57129H24.4569V5.19629C23.5819 5.19629 22.4969 5.19629 20.9569 5.19629C17.7413 5.19629 15.7069 7.71716 15.7069 11.3213V13.9463H12.2069V18.3213H15.7069V28.8213H20.0819Z" fill="white"/>
</svg>

<svg width="29" height="29" fill="none" xmlns="http://www.w3.org/2000/svg"><path d="M28.832 27.071a1.75 1.75 0 01-1.75 1.75h-24.5a1.75 1.75 0 01-1.75-1.75v-24.5c0-.966.784-1.75 1.75-1.75h24.5c.966 0 1.75.784 1.75 1.75v24.5z" fill="#3B5998"/><path d="M20.082 28.821v-10.5h3.5l.875-4.375h-4.375v-1.75c0-1.75.877-2.625 2.625-2.625h1.75V5.196h-3.5c-3.216 0-5.25 2.521-5.25 6.125v2.625h-3.5v4.375h3.5v10.5h4.375z" fill="#fff"/></svg>
